lib/healthicons/icons/solid/shapes/circle_large.svg

<svg fill="none" height="48" viewBox="0 0 48 48" width="48" xmlns="http://www.w3.org/2000/svg"><g fill="#333"><path d="m23.9999 44.0003c11.0457 0 20.0001-8.9545 20.0001-20.0002 0-11.0458-8.9544-20.0001-20.0001-20.0001-11.0458 0-20.00014 8.9543-20.00014 20.0001 0 11.0457 8.95434 20.0002 20.00014 20.0002z"/><path clip-rule="evenodd" d="m24 41.5c9.665 0 17.5-7.835 17.5-17.5s-7.835-17.5-17.5-17.5-17.5 7.835-17.5 17.5 7.835 17.5 17.5 17.5zm0 2.5c11.0457 0 20-8.9543 20-20s-8.9543-20-20-20-20 8.9543-20 20 8.9543 20 20 20z" fill-rule="evenodd"/></g></svg>

<svg width="48" height="48" viewBox="0 0 48 48" fill="none" xmlns="http://www.w3.org/2000/svg">
<path d="M23.9999 44.0003C35.0456 44.0003 44 35.0458 44 24.0001C44 12.9543 35.0456 4 23.9999 4C12.9541 4 3.99976 12.9543 3.99976 24.0001C3.99976 35.0458 12.9541 44.0003 23.9999 44.0003Z" fill="#333333"/>
<path fill-rule="evenodd" clip-rule="evenodd" d="M24 41.5C33.665 41.5 41.5 33.665 41.5 24C41.5 14.335 33.665 6.5 24 6.5C14.335 6.5 6.5 14.335 6.5 24C6.5 33.665 14.335 41.5 24 41.5ZM24 44C35.0457 44 44 35.0457 44 24C44 12.9543 35.0457 4 24 4C12.9543 4 4 12.9543 4 24C4 35.0457 12.9543 44 24 44Z" fill="#333333"/>
</svg>
